X: 139
T: Song of the Camp
C: Teton Sioux band 1911-1914
N: Derived from sioux135.krn
O: South Dakota, U.S.A.
N: Teton Sioux Music by Frances Densmore, 1918
Z: transcribed to **kern format by Craig Sapp
L: 1/8
M: 3/4
Q: 1/4=58
K: Ab clef=bass
%%linebreak <none>
F C [I:setbarnb 1]| 
F2F G G F | 
F< CC2C B, | 
C2>F2 F/ C3/ | 
C< B,B,2B, B, | 
B,2>D2 D/ B,3/ | 
A,2F,2A, B, ||  
[M:2/4]A,2-A, B, ||  
[M:3/4]A,2A,< F,E,2 | 
A,2F, A, F, F, ||  
[M:2/4]F,3F, | 
F,2F,2 | 
z2C C ||  
[M:3/4]C2C2C C ||  
[M:2/4]C F F C ||  
[M:3/4]C CC2C B, ||  
[M:2/4]C2C2 | 
C2C B, ||  
[M:3/4]C2C B, B, C | 
C B, A, A, B, A, ||  
[M:2/4]B,2A, A, | 
A, A, F, F, | 
F,4 | 
F,2z2 |]  



